X: 141
T:The Leitrim Lilter
R:Reel
C:Charlie Lennon, Gaelic Roots III, Boston, 1997
S:Charlie Lennon
N:not intended to be a set 
Z:named for a bog 
Z:Added by Elizabeth.scarlett@rogers.com
M:C|
L:1/8
K:D
B|AF ~F2 DFAc|dfaf eBBc|dAea ~f3e|dBAF FEEB|
AF ~F2 DFAc|dfaf eBBA|GBge ~f3e|dBAG FDD:|
E|FAdf a2bg|afdf eB ~B2|ABde faaf| (3gag fg eABA|
FAdf a2bg|afdf eBBA| GBge ~f3e|dBAG FDDE|
FAdf a2bg|afdf eB (3BBB|ABde faaf|(3gag fg egfg|
af~f2 dB~B2 |ABdf eBBA|GBge f3e|dBAG FDD||
